static/icons/apps.svg

<?xml version="1.0" encoding="UTF-8" standalone="no"?>
<svg width="512px" height="512px" viewBox="0 0 512 512" version="1.1" xmlns="http://www.w3.org/2000/svg" xmlns:xlink="http://www.w3.org/1999/xlink" xmlns:sketch="http://www.bohemiancoding.com/sketch/ns">
    <!-- Generator: Sketch 3.0.4 (8053) - http://www.bohemiancoding.com/sketch -->
    <title>apps_off</title>
    <desc>Created with Sketch.</desc>
    <defs></defs>
    <g id="Icons" stroke="none" stroke-width="1" fill="none" fill-rule="evenodd" sketch:type="MSPage">
        <g id="apps_off" sketch:type="MSArtboardGroup" fill="#2A4D50">
            <path d="M153.5744,332.7744 L-7.2475359e-13,332.7744 L-7.2475359e-13,179.1744 L153.5744,179.1744 L153.5744,332.7744 L153.5744,332.7744 Z M153.5744,0 L25.5744,0 C11.4432,0 -7.2475359e-13,11.4688 -7.2475359e-13,25.5744 L-7.2475359e-13,153.5744 L153.5744,153.5744 L153.5744,0 L153.5744,0 Z M332.7744,153.5744 L332.7744,0 L179.1744,0 L179.1744,153.5744 L332.7744,153.5744 L332.7744,153.5744 Z M179.1744,332.7744 L332.7744,332.7744 L332.7744,179.1744 L179.1744,179.1744 L179.1744,332.7744 L179.1744,332.7744 Z M-7.2475359e-13,358.3744 L-7.2475359e-13,486.3744 C-7.2475359e-13,500.5824 11.4432,511.9744 25.5744,511.9744 L153.5744,511.9744 L153.5744,358.3744 L-7.2475359e-13,358.3744 L-7.2475359e-13,358.3744 Z M486.4,0 L358.3744,0 L358.3744,153.5744 L511.9744,153.5744 L511.9744,25.5744 C511.9744,11.4688 500.5312,0 486.4,0 L486.4,0 Z M358.3744,332.7744 L511.9744,332.7744 L511.9744,179.1744 L358.3744,179.1744 L358.3744,332.7744 L358.3744,332.7744 Z M179.1744,358.3744 L179.1744,511.9744 L332.7744,511.9744 L332.7744,358.3744 L179.1744,358.3744 L179.1744,358.3744 Z M358.3744,511.9744 L486.4,511.9744 C500.5312,511.9744 511.9744,500.5824 511.9744,486.3744 L511.9744,358.3744 L358.3744,358.3744 L358.3744,511.9744 L358.3744,511.9744 Z" id="Apps-3" sketch:type="MSShapeGroup"></path>
        </g>
    </g>
</svg>

<svg width="512" height="512" viewBox="0 0 512 512" xmlns="http://www.w3.org/2000/svg"><title>apps_off</title><desc>Created with Sketch.</desc><path d="M153.574 332.774H0v-153.6h153.574v153.6zm0-332.774h-128C11.444 0 0 11.47 0 25.574v128h153.574V0zm179.2 153.574V0h-153.6v153.574h153.6zm-153.6 179.2h153.6v-153.6h-153.6v153.6zM0 358.374v128c0 14.208 11.443 25.6 25.574 25.6h128v-153.6H0zM486.4 0H358.374v153.574h153.6v-128C511.974 11.47 500.53 0 486.4 0zM358.374 332.774h153.6v-153.6h-153.6v153.6zm-179.2 25.6v153.6h153.6v-153.6h-153.6zm179.2 153.6H486.4c14.13 0 25.574-11.392 25.574-25.6v-128h-153.6v153.6z" fill="#2A4D50" fill-rule="evenodd"/></svg>
